src/img/icons/tools.svg

<svg fill="none" height="21" viewBox="0 0 22 21" width="22" xmlns="http://www.w3.org/2000/svg"><path d="m13.9297 9.28906c1.1328 0 2.1484.42969 2.9297 1.21094l.7812.7422c1.5625-.7031 2.7735-2.07032 3.1641-3.75001.2344-.9375.2344-1.875.0391-2.69531-.1172-.42969-.6641-.54688-.9766-.23438l-2.6953 2.65625h-2.9297v-2.89063l2.6953-2.69531c.3125-.3125.1563-.859372-.2734-.97656-.8203-.195312-1.7188-.195312-2.6563.039062-2.1875.507808-3.8672 2.343748-4.21874 4.531248-.03906.3125-.03906.625-.03906.9375l3.2422 3.24219c.3125-.07813.625-.11719.9375-.11719zm2.0703 2.10934c-.9375-.8984-2.2656-1.0546-3.3594-.5468l-4.17966-4.17972v-2.42188l-4.96094-3.75-2.5 2.5 3.75 4.96094h2.42188l4.14062 4.14066c-.5078 1.0937-.3516 2.4609.5469 3.3593l4.5703 4.5703c.5859.5469 1.4844.5469 2.0703 0l2.0703-2.0703c.5469-.5468.5469-1.4843 0-2.0703zm-6.13281 1.0938-2.30469-2.3047-5.82031 5.8203c-1.015628 1.0547-1.015628 2.6953 0 3.75.50781.5078 1.21093.7422 1.875.7422.66406 0 1.36719-.2344 1.875-.7422l4.64841-4.6484c-.35154-.8203-.46872-1.7188-.27341-2.6172zm-6.36719 6.4453c-.54688 0-.9375-.3906-.9375-.9375 0-.5078.39062-.9375.9375-.9375.50781 0 .9375.4297.9375.9375 0 .5469-.42969.9375-.9375.9375z" fill="#fff"/></svg>

<svg width="22" height="21" viewBox="0 0 22 21" fill="none" xmlns="http://www.w3.org/2000/svg">
<path d="M13.9297 9.28906C15.0625 9.28906 16.0781 9.71875 16.8594 10.5L17.6406 11.2422C19.2031 10.5391 20.4141 9.17188 20.8047 7.49219C21.0391 6.55469 21.0391 5.61719 20.8438 4.79688C20.7266 4.36719 20.1797 4.25 19.8672 4.5625L17.1719 7.21875H14.2422V4.32812L16.9375 1.63281C17.25 1.32031 17.0938 0.773438 16.6641 0.65625C15.8438 0.460938 14.9453 0.460938 14.0078 0.695312C11.8203 1.20312 10.1406 3.03906 9.78906 5.22656C9.75 5.53906 9.75 5.85156 9.75 6.16406L12.9922 9.40625C13.3047 9.32812 13.6172 9.28906 13.9297 9.28906ZM16 11.3984C15.0625 10.5 13.7344 10.3438 12.6406 10.8516L8.46094 6.67188V4.25L3.5 0.5L1 3L4.75 7.96094H7.17188L11.3125 12.1016C10.8047 13.1953 10.9609 14.5625 11.8594 15.4609L16.4297 20.0312C17.0156 20.5781 17.9141 20.5781 18.5 20.0312L20.5703 17.9609C21.1172 17.4141 21.1172 16.4766 20.5703 15.8906L16 11.3984ZM9.86719 12.4922L7.5625 10.1875L1.74219 16.0078C0.726562 17.0625 0.726562 18.7031 1.74219 19.7578C2.25 20.2656 2.95312 20.5 3.61719 20.5C4.28125 20.5 4.98438 20.2656 5.49219 19.7578L10.1406 15.1094C9.78906 14.2891 9.67188 13.3906 9.86719 12.4922ZM3.5 18.9375C2.95312 18.9375 2.5625 18.5469 2.5625 18C2.5625 17.4922 2.95312 17.0625 3.5 17.0625C4.00781 17.0625 4.4375 17.4922 4.4375 18C4.4375 18.5469 4.00781 18.9375 3.5 18.9375Z" fill="white"/>
</svg>
